X:1
T:I’ll Go Where You Want Me To Go
T:I’ll Go Where You Want Me To Go
T:Carrie Esther Parker Rounsefell, 1894
T:Mary Brown, 1892, & Charles Edward Prior
T:Public Domain Courtesy of the Cyber Hymnal™
T:Public Domain Courtesy of the Cyber Hymnal™
C:Carrie Esther Parker Rounsefell, 1894
Z:Public Domain
Z:Courtesy of the Cyber Hymnal™
%%score ( 1 2 ) ( 3 4 )
L:1/8
Q:1/4=95
M:6/8
K:F
V:1 treble 
V:2 treble 
V:3 bass 
V:4 bass 
V:1
 [FA] | [FA]2 [FA] [Fc]2 [FA]/[FA]/ | [FB]2 [FB] [Fd]2 [Fd] | !>![Fc]>[FB][FA] [Fc]2 [FA] | %4
w: 1.~It|may not be on the|mount- ain’s height, Or|o- ver the storm- y|
w: 2.~Per-|haps to- day there are|lov- ing words Which|Je- sus would have me|
w: 3.~There’s|sure- ly some- where a|low- ly place In|earth’s har- vest fields so|
 [EG]3- [EG]2 [EG] | [FA]2 [FA] [EB]>[EA][EB] | [Fc]2 [Fc] [Fd]2 [Fd] | [Fc]>[FB][FA] [EA]2 [EG] | %8
w: sea; * It|may not be at the|bat- tle’s front My|Lord will have need of|
w: speak; * There|may be now, in the|paths of sin, Some|wand- ’rer whom I should|
w: wide, * Where|I may la- bor thro’|life’s short day For|Je- sus, the Cru- ci-|
 F3- F2 [Fc] | [Ec]2 [EG]/[EG]/ (G^F)[EG] | [FA]2 [CF] [FA]2 [Fc] | [Ec]2 [EG] ([EG]F)[EG] | %12
w: me; * But|if by a still, * small|voice He calls To|paths I do * not|
w: seek. * O|Sav- ior, if Thou * wilt|be my guide, Tho’|dark and rugged * the|
w: fied. * So,|trust- ing my all * un-|to Your care, I|know Thou lov- * est|
 [FA]3- [FA]2 F | ([FA]>[FG])[FA] [EB]>[EA][EB] | (c>=B)[Fc] [Fd]2 [Fd] | %15
w: know, * I’ll|answer, * dear Lord, with my|hand * in Thine, I’ll|
w: way, * My|voice * shall e- cho the|mes- * sage sweet, I’ll|
w: me! * I’ll|do * Thy will with a|heart * sin- cere, I’ll|
 !>![Fc]>[FB][FA] [FA][EA]>[EG] | F3- F2 ||"^Refrain" [Fc] | !>![Ec]>[EG][EG] [EG][E^F][EG] | %19
w: go where You want me to|go. *|||
w: say what You want me to|say. *|||
w: be what You want me to|be. *|||
 [FA]2 F [FA]2 [Fc] | [Ec]>[EG][EG] ([EG]F)[EG] | [FA]3- [FA]2 F | !>![FA]>G[FA] [EB]>[EA][EB] | %23
w: ||||
w: ||||
w: ||||
 (c>=B)[Fc] !fermata![Fd]2 !fermata![Fd] | !>![Fc]>[FB][FA] [FA][EA]>[EG] | F3- F2 |] %26
w: |||
w: |||
w: |||
V:2
 x | x6 | x6 | x6 | x6 | x6 | x6 | x6 | F3- F2 x | x3 E2 x | x6 | x4 F x | x5 F | x6 | F2 x4 | x6 | %16
 F3- F2 || x | x6 | x2 F x3 | x4 F x | x5 F | x3/2 F3/4 x15/4 | F2 x4 | x6 | F3- F2 |] %26
V:3
 [F,C] | [F,C]2 [F,C] [F,A,]2 [F,C]/[F,C]/ | [B,,D]2 [B,,D] [B,,B,]2 [D,B,] | %3
w: ~|~ ~ ~ ~ ~|~ ~ ~ ~|
 !>![F,A,]>[F,D][F,C] [F,A,]2 [F,C] | [C,C]3- [C,C]2 [C,C] | [F,C]2 [F,C] [G,C]>[G,C][G,C] | %6
w: ~ ~ ~ ~ ~|~ * ~|~ ~ ~ ~ ~|
 [A,C]2 [A,C] B,2 [B,,B,] | [C,A,]>[C,D][C,C] [C,C]2 [C,B,] | [F,A,]3- [F,A,]2 [F,A,] | %9
w: ~ ~ ~ ~|~ ~ ~ ~ ~|~ * ~|
 [C,G,]2 [C,B,]/[C,B,]/ [C,B,]2 [C,B,] | [F,C]2 [F,A,] [F,C]2 [F,A,] | [C,G,]2 [C,B,] (B,A,)[C,C] | %12
w: ~ ~ ~ ~ ~|~ ~ ~ ~|~ ~ ~ * ~|
 [F,C]3- [F,C]2 [F,A,] | [F,C]>[F,C][F,C] [G,C]>[G,C][G,C] | [A,C]2 [A,C] B,2 [B,,B,] | %15
w: ~ * ~|~ ~ ~ ~ ~ ~|~ ~ ~ ~|
 !>![C,A,]>[C,D][C,C] [C,C][C,C]>[C,B,] | [F,A,]3- [F,A,]2 || [F,A,] | %18
w: ~ ~ ~ ~ ~ ~|~ *|I’ll|
 !>![C,G,]>[C,C][C,C] [C,C][C,C][C,C] | [F,C]2 [A,C] [F,C]2 [F,A,] | [C,G,]>[C,B,][C,B,] (B,A,)C | %21
w: go where You want me to|go, dear Lord, O’er|mount- ain, or plain, * or|
 [F,C]3- [F,C]2 [F,A,] | !>![F,C]>[F,C][C,C] [G,C]>[G,C][G,C] | [A,C]2 [A,C] B,2 [B,,B,] | %24
w: sea; * I’ll|say what You want me to|say, dear Lord, I’ll|
 !>![C,A,]>[C,D][C,C] [C,C][C,C]>[C,B,] | [F,A,]3- [F,A,]2 |] %26
w: be what You want me to|be. *|
V:4
 x | x6 | x6 | x6 | x6 | x6 | x6 | x6 | x6 | x6 | x6 | x3 C,2 x | x6 | x6 | x6 | x6 | x5 || x | %18
 x6 | x6 | x3 C,2 C | x6 | x6 | x3 B,2 x | x6 | x5 |] %26

